X: 5
T: Tuttle's
R: reel
M: 4/4
L: 1/8
K: Ddor
E3F GFGA | BdAd BeeB | E3F GBec | dBAF GFED |
E3F GFGA | BdAd Beef | gefd edBe | dBAF FEE2 :|
e2ec d2dd | Beec dBAB | e2ec d2dB | AFdF FEEb |
e2ec d2dd | Beec dBAB | gefd edBe | dBAF FEE2 :|


Tune 528	Setting 24218

